X: 4
T: West Clare
R: reel
M: 4/4
L: 1/8
K: Ador
~e2 dB ~A3 G | EAAG ~A2 Bd | ~e2 dB ~A3 G | EGGF ~G2 :|~e3 d edBd | eaag ea ~a2 | ~e3 d edBd | (3Bcd ef g2 :|


Tune 999	Setting 24104

